X:23
%%etbk:tnset id:283,pos:3,rep:3x,ant:
%%etbk:wsite http://www.thesession.org/tunes/display/711
%%etbk:pldat 2016-03-09T16:42,2016-02-04T18:58,2016-02-03T16:02,2016-02-02T16:45,2016-02-01T18:20,2016-01-28T19:02,2016-01-27T16:42,2016-01-26T16:18,2016-01-25T18:11,2016-01-21T18:22,2016-01-20T16:17,2016-01-18T17:55,2016-01-17T13:02,2016-01-16T14:42,2015-09-10T16:55,2015-09-07T18:46,2015-07-24T17:09,2015-05-28T18:36,2015-02-22T13:33,2015-02-18T17:10,2015-02-14T12:53,2015-01-29T18:59,2015-01-14T16:56,2015-01-10T15:00,2015-01-07T16:02,2015-01-05T18:53,2014-12-31T14:18,2014-10-16T19:00,2014-10-11T13:18,2014-09-18T17:54,2014-09-13T13:21,2014-08-14T19:02,2014-08-13T18:38,2014-08-12T18:55,2014-08-11T19:06,2014-08-10T13:49,2014-08-06T19:22,2014-08-04T18:34,2014-08-03T16:00,2014-08-02T15:13,2014-07-30T19:26,2014-07-27T16:29,2014-07-22T19:01,2014-07-20T14:36,2014-07-16T18:23,2014-07-05T13:05,2014-07-02T17:03,2014-06-20T15:58,2014-06-19T18:52,2014-06-17T18:41,2014-06-15T11:40,2014-06-11T15:55,2014-06-05T18:31,2014-05-28T14:27,2014-05-22T18:17,2014-05-07T17:24,2014-04-24T17:42,2014-04-23T16:47,2014-04-22T19:25,2014-04-21T15:25,2014-04-18T14:47,2014-04-16T08:41,2014-04-11T17:57,2014-04-06T10:03,2014-04-01T16:13,2014-03-25T16:09,2014-03-25T15:17,2014-03-06T18:57,2014-03-04T18:33,2014-03-02T15:50,2014-03-01T15:25,2014-02-20T18:17,2014-02-16T14:18,2014-01-30T17:35,2014-01-29T15:11,2014-01-28T18:04,2014-01-27T17:53,2014-01-26T14:29,2014-01-20T18:46,2014-01-19T14:22,2014-01-18T15:02,2014-01-16T18:00,2014-01-14T18:46,2014-01-13T18:45,2014-01-12T13:42,2014-01-08T16:44,2014-01-07T15:55,2014-01-06T18:04,2014-01-03T15:31,2014-01-02T10:22,2013-12-29T12:23,2013-12-28T13:54,2013-12-27T15:45,2013-12-26T13:34,2013-12-22T16:03,2013-12-21T16:35,2013-12-18T16:41,2013-12-17T15:36,2013-12-16T18:35,2013-12-15T16:00,2013-12-09T17:55,2013-12-06T16:53,2013-11-19T16:30,2013-10-20T15:21,2013-10-04T17:44,2013-08-26T18:39,2013-05-15T16:49,2013-05-12T19:14
T: Tap Room, The
Z: Piano Box Version by Martin Fleischmann
H: Created 2013-02-19 /  Last Modified 2013-12-15
M: 4/4
L: 1/8
R: reel
K: Edor
!1!E2 !2!Bc !4!d!2!BB!1!A|!4!d!2!B!1!A!3!F !1!D!2!E!3!F!1!D|!1!E2 Bc dBBA|!4!d!2!B!1!A!2!F !5!B!1!E !3!(3E!2!E!1!E|
!1!E2 !4!BE !5!dEBE|!5!d!4!B!3!A!2!F !1!D!5!d!1!d!3!f|!5!af!4!ge !3!fd!5!e!3!c|!4!dBAF DEFD:|
!5!e2 !2!ef !4!g!3!f!1!e!3!c|!4!dBAF DEF!1!D|!5!e2 !2!ef gfec|dBAF BE E2|
!5!e2 !2!ef gf!1!e!3!c|!4!d2 !4!d!3!c !1!defg|afge fd!5!e!3!c|!4!dBAF DEFD:|


